brandFactory_export/3.Masa/Abrir mail correo_3Masa.svg

<?xml version="1.0" encoding="UTF-8"?>
<svg width="24px" height="24px" viewBox="0 0 24 24" version="1.1" xmlns="http://www.w3.org/2000/svg" xmlns:xlink="http://www.w3.org/1999/xlink">
    <title>3.Masa/Abrir mail correo_3Masa</title>
    <g id="Symbols" stroke="none" stroke-width="1" fill="none" fill-rule="evenodd">
        <g id="3.Masa/Abrir-mail-correo_3Masa" fill="#5CB615" fill-rule="nonzero">
            <path d="M12.7630252,15.0436975 C12.4369748,15.2655462 12.0537815,15.3865546 11.6605042,15.3932773 C11.2504202,15.3865546 10.8470588,15.2621849 10.5042017,15.0369748 L1.48907563,9.35294118 L1.48907563,9.34957983 C1.50252101,8.88571429 1.61680672,8.55294118 1.78823529,8.42857143 L10.6789916,2.80840336 C11.0218487,2.59663866 11.4184874,2.48571429 11.8184874,2.48235294 C12.4571429,2.48235294 12.9411765,2.80504202 12.9747899,2.82857143 L21.805042,8.40840336 C21.9865546,8.53613445 22.0941176,8.82521008 22.1210084,9.20840336 L12.7630252,15.0436975 Z M23.6067227,21.0806723 L23.6168067,9.31596639 C23.589916,8.11260504 23.0890756,7.50420168 22.6386555,7.18487395 L13.8084034,1.60504202 C13.2134454,1.21176471 12.5176471,1.00336134 11.805042,1.00336134 C10.692437,1.00336134 9.90588235,1.54117647 9.85546218,1.58151261 L1.11596639,7.10084034 L0.951260504,7.20504202 C0.534453782,7.50420168 0.0336134454,8.11260504 0.00672268908,9.33277311 L0.0168067227,21.0840336 C-0.0134453782,21.3462185 -0.0571428571,22.1663866 0.497478992,22.8319328 C0.796638655,23.1915966 1.37815126,23.6218487 2.45378151,23.6453782 L21.1697479,23.6453782 C22.2420168,23.6252101 22.8235294,23.1915966 23.1226891,22.8319328 C23.6806723,22.1630252 23.6369748,21.3462185 23.6067227,21.0806723 Z" id="Abrir-mail-correo_3Masa"></path>
        </g>
    </g>
</svg>

<svg width="24" height="24" viewBox="0 0 24 24" xmlns="http://www.w3.org/2000/svg"><path d="M12.763 15.044a2.02 2.02 0 01-1.102.35 2.178 2.178 0 01-1.157-.357L1.49 9.353V9.35c.014-.464.128-.797.3-.921l8.89-5.62c.343-.212.74-.323 1.14-.327a2.21 2.21 0 011.156.347l8.83 5.58c.182.127.29.416.316.8l-9.358 5.835zm10.844 6.037l.01-11.765c-.027-1.203-.528-1.812-.978-2.131l-8.83-5.58a3.63 3.63 0 00-2.004-.602c-1.113 0-1.9.538-1.95.579L1.116 7.1l-.165.104c-.417.3-.917.908-.944 2.128l.01 11.751c-.03.262-.074 1.082.48 1.748.3.36.881.79 1.957.813H21.17c1.072-.02 1.654-.453 1.953-.813.558-.669.514-1.486.484-1.751z" fill="#5CB615" fill-rule="nonzero"/></svg>
